X:135
T:Star of the County Down
M:3/4
K:Am
L:1/8
EG| A4 A2|A3 G A|c4 c2|d4 cd| e3 d c2|A3 G E2|
(G6|G2) c2 B2| A4 A2|A3 G A2|c4 c2|d4 cd|
e3 d c2|A4 A2||(A6|A2) c2 e2 || g4 e2|e3 d c2|
d4 d2|d4 cd| e3 d c2|A3 G E2|(G6|G2) c2 B2|
A4 A2|A3 G A2|c4 c2|d3 c d2| e3 d c2|A4 A2|(A6|A4) |>|
